X:430
T: Mike Preston's
S: B.Flaherty
Z: B.Black
M: 4/4
L: 1/8
R: reel
K: G
GB B2 GBdB|FA A2 FAFD|GB B2 GBdg|fgaf gedB|
GB B2 GBdB|FA A2 FAFD|GB B2 GBdg|fgaf g2 de ||
gb b2 fa a2|agef gede|gb b2 fa a2|agef g2 de|
gb b2 fa a2|agef gede|g2 ae ge d2|eaaf gedB ||
